X: 18
T:Horse Shoes
T:Three Hand Reel
M:6/8
L:1/8
Q:124
N:Dance written by Linda Harley
Z:Brian Martin <brian_martin12345@yahoo.com> Winterbourn Downs Morris  (rcvd Jan 2003)
K:G
d | B2dB2A | GBd e2d | efg dBG | AcB A2d | B2dB2A | GBd e2d | efg dcA | G3-G2 :|
d | g2de2d | g2de2d | efg dBG | AcB A2d | g2de2d | g2de2d | efg dcA | G3-G2 :|
